Gruvbox-Material-Icons/actions/symbolic/twitter-dm-symbolic.svg

<svg xmlns="http://www.w3.org/2000/svg" width="16" height="16" viewBox="0 0 16 16">
 <defs>
  <style id="current-color-scheme" type="text/css">
   .ColorScheme-Text { color:#ebdbb2; } .ColorScheme-Highlight { color:#458588; }
  </style>
 </defs>
 <path style="fill:currentColor" class="ColorScheme-Text" d="M 3.6699219 1 L 1.0039062 7.9882812 L 1.0039062 14.988281 L 15.003906 14.988281 L 15.003906 7.9882812 L 12.335938 1 L 3.6699219 1 z M 5.203125 3.0253906 L 10.802734 3.0253906 L 12.902344 8.9375 L 10.802734 8.9375 L 10.103516 11.037109 L 5.9023438 11.037109 L 5.203125 8.9375 L 3.1035156 8.9375 L 5.203125 3.0253906 z"/>
</svg>

<svg width="16" height="16" viewBox="0 0 16 16" xmlns="http://www.w3.org/2000/svg">
  <defs>
    <style id="current-color-scheme" type="text/css">.ColorScheme-Text { color:#ebdbb2; } .ColorScheme-Highlight { color:#458588; }</style>
  </defs>
  <path class="ColorScheme-Text" d="m3.67 1-2.666 6.988v7h14v-7l-2.668-6.988h-8.666zm1.533 2.025h5.6l2.1 5.912h-2.1l-0.6992 2.1h-4.201l-0.6992-2.1h-2.1l2.1-5.912z" fill="currentColor"/>
</svg>
